app/assets/img/ic-emergency.svg

<svg height="250" viewBox="0 0 250 250" width="250" xmlns="http://www.w3.org/2000/svg"><g fill="none" fill-rule="evenodd"><path d="m0 0h250v250h-250z"/><path d="m6.94444444 222.222222h236.11111156l-118.055556-208.3333331zm131.94444456-27.777778h-27.777778v-27.777777h27.777778zm0-41.666666h-27.777778v-55.5555558h27.777778z" fill="#000" fill-rule="nonzero"/></g></svg>

<svg xmlns="http://www.w3.org/2000/svg" width="250" height="250" viewBox="0 0 250 250">
  <g fill="none" fill-rule="evenodd">
    <polygon points="0 0 250 0 250 250 0 250"/>
    <path fill="#000000" fill-rule="nonzero" d="M6.94444444,222.222222 L243.055556,222.222222 L125,13.8888889 L6.94444444,222.222222 Z M138.888889,194.444444 L111.111111,194.444444 L111.111111,166.666667 L138.888889,166.666667 L138.888889,194.444444 Z M138.888889,152.777778 L111.111111,152.777778 L111.111111,97.2222222 L138.888889,97.2222222 L138.888889,152.777778 Z"/>
  </g>
</svg>
